X: 37964
T: Spanish Point
R: jig
M: 6/8
K: Dmixolydian
|:D3 EFG|A3 d3|c3 B2c|A6|B3 G2E|G3 E2D|C3 DEG|A6|
D3 EFG|A3 d3|c3 B2c|A6|B3 G2E|G3 EDC|D6-|D6:|
|:d3 c2A|e3 d3|c3 A2B|c6|B3 G2E|G3 A2B|c3 B2c|A6|
d3 c2A|e3 d3|c3 A2B|c6|B3 G2E|G3 EDC|D6-|D6:|

